svgs/duotone/notdef.svg

<svg xmlns="http://www.w3.org/2000/svg" viewBox="0 0 384 512"><!-- Font Awesome Pro 6.0.0-alpha2 by @fontawesome - https://fontawesome.com License - https://fontawesome.com/license (Commercial License) --><defs><style>.fa-secondary{opacity:.4}</style></defs><path d="M64 390.312L153.541 256L64 121.688V64H102.459L192 198.312L281.541 64H320V121.688L230.459 256L320 390.312V448H281.541L192 313.688L102.459 448H64V390.312Z" class="fa-secondary"/><path d="M336 0H48C21.49 0 0 21.49 0 48V464C0 490.51 21.49 512 48 512H336C362.51 512 384 490.51 384 464V48C384 21.49 362.51 0 336 0ZM320 448H64V64H320V448Z" class="fa-primary"/></svg>

<svg xmlns="http://www.w3.org/2000/svg" viewBox="0 0 384 512"><!--! Font Awesome Pro 6.3.0 by @fontawesome - https://fontawesome.com License - https://fontawesome.com/license (Commercial License) Copyright 2023 Fonticons, Inc. --><defs><style>.fa-secondary{opacity:.4}</style></defs><path class="fa-primary" d="M336 0h-288C21.49 0 0 21.49 0 48v416C0 490.5 21.49 512 48 512h288c26.51 0 48-21.49 48-48v-416C384 21.49 362.5 0 336 0zM320 448H64V64h256V448z"/><path class="fa-secondary" d="M64 390.3L153.5 256L64 121.7V64h38.46L192 198.3L281.5 64H320v57.69L230.5 256L320 390.3V448h-38.46L192 313.7L102.5 448H64V390.3z"/></svg>
